src/assets/img/linktIn.svg

<svg width="30" height="30" viewBox="0 0 30 30" fill="none" xmlns="http://www.w3.org/2000/svg">
<path d="M25.5583 25.565H21.1167V18.6033C21.1167 16.9433 21.0833 14.8067 18.8 14.8067C16.485 14.8067 16.1317 16.6133 16.1317 18.4817V25.565H11.6883V11.25H15.955V13.2H16.0133C16.61 12.0767 18.06 10.8883 20.2267 10.8883C24.7267 10.8883 25.56 13.8517 25.56 17.7067V25.565H25.5583ZM6.67167 9.29167C6.33259 9.29211 5.99677 9.22562 5.68344 9.09601C5.37011 8.9664 5.08545 8.77623 4.84576 8.53639C4.60608 8.29655 4.41609 8.01176 4.28668 7.69835C4.15728 7.38494 4.09101 7.04907 4.09167 6.71C4.092 6.19972 4.24363 5.70101 4.5274 5.27691C4.81117 4.85281 5.21432 4.52239 5.68588 4.32742C6.15744 4.13245 6.67623 4.08169 7.17663 4.18157C7.67704 4.28144 8.13659 4.52746 8.49718 4.88851C8.85777 5.24956 9.10319 5.70943 9.20242 6.20997C9.30164 6.7105 9.25022 7.22922 9.05464 7.70053C8.85906 8.17184 8.52811 8.57456 8.10365 8.85778C7.67919 9.141 7.18194 9.292 6.67167 9.29167ZM8.89833 25.565H4.44333V11.25H8.9V25.565H8.89833ZM27.7833 0C38.6334 0 0 0 0 0C0 0 0 0.966667 0 2.16167V27.8383C0 29.0333 0 30 0 30H30C30 30 30 29.0333 30 27.8383V2.16167C30 0.966667 30 0 30 0H27.7833Z" fill="#FFFCF3"/>
</svg>

<svg xmlns="http://www.w3.org/2000/svg" width="30" height="30" fill="none"><path fill="#FFFCF3" d="M25.558 25.565h-4.441v-6.962c0-1.66-.034-3.796-2.317-3.796-2.315 0-2.668 1.806-2.668 3.675v7.083h-4.444V11.25h4.267v1.95h.058c.597-1.123 2.047-2.312 4.214-2.312 4.5 0 5.333 2.964 5.333 6.819v7.858h-.002ZM6.672 9.292a2.577 2.577 0 0 1-2.58-2.582 2.58 2.58 0 1 1 2.58 2.582Zm2.226 16.273H4.443V11.25H8.9v14.315h-.002ZM27.783 0H0V30h30V0h-2.217Z"/></svg>
